X: 20257
T: Joe O'Dowd's
R: reel
M: 4/4
K: Dmajor
{G}FEDF ABAG|{G}FDFA dz {B}cA|{c}BAGB ~A2 DA|(3Bcd AF GE ~E2|
FEDF ABAG|FDFA dz cA|BAGB ~A2 dA|(3Bcd AF FD Dz:|
~e3 f ~g3 a|{g}fed2 eAce|dBGB ~Az dA|(3Bcd AF GE ~E2|
edef gb ~b2|fa ~a2 eAce|dBGB ~Az DA|(3Bcd AG FD D2|
~e3 f ~gfeg|{g}fed2 eAce|dBGB ~Az dA|(3Bcd AF GE ~E2|
edef {a}gfeg|{g}fedf eAce|dBGB ~Az DA|(3Bcd AG FD D2||

